!!!COM: Music21
!!!OTL: strathspey_Paddy-Bartleys
!!!OMV: strathspey_Paddy-Bartleys
**kern
*clefG2
*k[f#c#]
*D:
*M4/4
=1
8A
=
4d
8.f#L
16aJk
8.ddL
16aJk
8.f#L
16dJk
=
8.eL
16bJk
8.eeL
16ddJk
8.cc#L
16aJk
12bL
12cc#
12ddJ
=
4d
8.f#L
16aJk
8.ddL
16aJk
8.f#L
16dJk
=
8.A
16e
8.c#
16eLL
16f#J
8.dJ
8d
8ryy
!!linebreak:original
=||
*M4/4
8A
=
4d
8.f#L
16aJk
8.ddL
16aJk
8.f#L
16dJk
=
8.eL
16bJk
8.eeL
16ddJk
8.cc#L
16aJk
12bL
12cc#
12ddJ
=
4d
8.f#L
16aJk
8.ddL
16aJk
8.f#L
16dJk
=
8.A
16e
8.c#
16eLL
16f#J
8.dJ
8d
8ryy
!!linebreak:original
=||
8a
2..ryy
=
8.ddL
16ff#Jk
8.aaL
16ff#Jk
8.ggL
16ff#Jk
8.eeL
16ddJk
=
8.cc#L
16aJk
8.eeL
16aJk
8.ff#L
16aJk
8.eeL
16aJk
=
8.ddL
16ff#Jk
8.aaL
16ff#Jk
8.ggL
16ff#Jk
8.eeL
16ddJk
=
8.cc#L
16bbJk
8.aaL
16ggJk
16ff#KL
8.ddJ
8.ddL
16aJk
!!linebreak:original
=
8.ddL
16ff#Jk
8.aaL
16ff#Jk
8.ggL
16ff#Jk
8.eeL
16ddJk
=
8.cc#L
16aJk
12aL
12a
12aJ
8.ff#L
16aJk
8.eeL
16aJk
=
8.ddL
16ff#Jk
8.aaL
16ff#Jk
8.ggL
16ff#Jk
8.eeL
16ddJk
=
8.cc#L
16bbJk
8.aaL
16ggJk
16ff#KL
8.ddJ
8.ddL
16aJk
=||
*-
